docs/favicon.svg

<svg width="100" height="100" viewBox="0 0 100 100" fill="none" xmlns="http://www.w3.org/2000/svg">
  <defs>
    <style>
      path { fill: #000000; }
      @media (prefers-color-scheme: dark) { path { fill: #ffffff; } }
    </style>
  </defs>
  <path d="M0 88.2354V100H17.9955C15.5417 96.9742 13.9662 93.5091 13.269 89.605L13.02 88.2354H0Z"/>
  <path d="M98.8086 45.6523C99.211 45.8722 99.6082 46.095 100 46.3207V100H81.7735C83.8334 96.8873 84.8633 93.3808 84.8633 89.4805V89.356C84.8633 83.2964 82.4561 78.5649 77.6416 75.1616C72.9102 71.6753 64.9414 68.77 53.7354 66.4458L34.8096 62.7104C20.2521 59.7716 8.6489 55.1727 0 48.9138V0H21.2917C19.7616 2.75537 18.9966 5.85367 18.9966 9.29492V9.41943C18.9966 15.064 21.4038 19.6294 26.2183 23.1157C31.0327 26.6021 38.5864 29.3828 48.8794 31.458L67.9297 35.3179C80.4639 37.8081 90.7568 41.2529 98.8086 45.6523Z"/>
  <path d="M100 11.6606V0H79.3852C81.4167 2.91974 82.7032 6.30858 83.2446 10.1665L83.3691 11.6606H100Z"/>
</svg>

<svg width="100" height="100" viewBox="0 0 100 100" fill="none" xmlns="http://www.w3.org/2000/svg">
  <defs>
    <style>
      path { fill: #000000; }
      @media (prefers-color-scheme: dark) { path { fill: #ffffff; } }
    </style>
  </defs>
  <path d="M0 88.235V100h17.995c-2.453-3.026-4.029-6.49-4.726-10.395l-.249-1.37H0Zm98.809-42.583c.402.22.8.443 1.191.669V100H81.773c2.06-3.113 3.09-6.62 3.09-10.52v-.124c0-6.06-2.407-10.791-7.221-14.194-4.732-3.487-12.7-6.392-23.907-8.716L34.81 62.71C20.252 59.772 8.649 55.173 0 48.914V0h21.292c-1.53 2.755-2.295 5.854-2.295 9.295v.124c0 5.645 2.407 10.21 7.221 13.697 4.815 3.486 12.368 6.267 22.661 8.342l19.05 3.86c12.535 2.49 22.828 5.935 30.88 10.334ZM100 11.66V0H79.385c2.032 2.92 3.318 6.309 3.86 10.166l.124 1.495H100Z"></path>
</svg>
